X: 132015
T: ARGYLE IS MY NAME
Q: "Scotch Jig."
R: Jig.
%R: jig
B: James Kerr "Merry Melodies" v.1 p.32 s.0 #15
Z: 2016 John Chambers <jc:trillian.mit.edu>
M: 6/8
L: 1/8
K: D
uA |\
vd>ued dcd | vfee ue2ug | vf>ed (uf<a)uA | ABc dfe |\
d>ed dcd | fee e2g | f>ed (f<a)A | ABc d2 :|
|: ua |\
afd dfa | agf ug2ub | afd dfa | agf eef |\
g>ag g>ag | A>BA g>ag | fed (f<a)A | ABc d2 :|

%%sep 1 1 500
%%sep 1 1 500

